packages/icons/svg/Outline/message-circle.svg

<svg fill="none" height="24" viewBox="0 0 24 24" width="24" xmlns="http://www.w3.org/2000/svg"><path clip-rule="evenodd" d="m7.00021 10.9992c0-.552.448-.99996 1-.99996s1 .44796 1 .99996-.448 1-1 1-1-.448-1-1zm4.99999-.99996c-.552 0-1 .44796-1 .99996s.448 1 1 1 1-.448 1-1-.448-.99996-1-.99996zm4 0c-.552 0-1 .44796-1 .99996s.448 1 1 1 1-.448 1-1-.448-.99996-1-.99996zm3.8984 2.29496c-.507 3.254-3.13 5.953-6.379 6.562-1.569.296-3.167.127-4.61698-.487-.411-.174-.836-.262-1.253-.262-.19 0-.378.018-.563.055l-2.812.562.563-2.817c.118-.585.046-1.211-.207-1.81-.614-1.45-.782-3.047-.487-4.61696.609-3.249 3.307-5.872 6.56198-6.379 2.59-.403 5.123.413 6.951 2.241 1.829 1.829 2.646 4.363 2.242 6.95196zm-.827-8.36603c-2.285-2.284-5.445-3.302999-8.674-2.804-4.07697.636-7.45697 3.92-8.21997 7.987-.368 1.95803-.156 3.95203.611 5.76503.097.231.127.446.089.639l-.858 4.288c-.066.328.037.667.274.903.189.19.444.293.707.293.065 0 .13-.006.196-.019l4.283-.857c.246-.047.484.022.643.088 1.815.767 3.80897.978 5.76497.611 4.068-.763 7.352-4.143 7.988-8.22.502-3.22703-.519-6.38903-2.804-8.67403z" fill="#6b7280" fill-rule="evenodd"/></svg>

<svg width="24" height="24" viewBox="0 0 24 24" fill="none" xmlns="http://www.w3.org/2000/svg">
<g id="Icon/Outline/message-circle">
<path id="Mask" fill-rule="evenodd" clip-rule="evenodd" d="M7.0002 10.9993C7.0002 10.4473 7.4482 9.99927 8.0002 9.99927C8.5522 9.99927 9.0002 10.4473 9.0002 10.9993C9.0002 11.5513 8.5522 11.9993 8.0002 11.9993C7.4482 11.9993 7.0002 11.5513 7.0002 10.9993ZM12.0002 9.99927C11.4482 9.99927 11.0002 10.4473 11.0002 10.9993C11.0002 11.5513 11.4482 11.9993 12.0002 11.9993C12.5522 11.9993 13.0002 11.5513 13.0002 10.9993C13.0002 10.4473 12.5522 9.99927 12.0002 9.99927ZM16.0002 9.99927C15.4482 9.99927 15.0002 10.4473 15.0002 10.9993C15.0002 11.5513 15.4482 11.9993 16.0002 11.9993C16.5522 11.9993 17.0002 11.5513 17.0002 10.9993C17.0002 10.4473 16.5522 9.99927 16.0002 9.99927ZM19.8986 12.2942C19.3916 15.5482 16.7686 18.2472 13.5196 18.8562C11.9506 19.1522 10.3526 18.9832 8.9026 18.3692C8.4916 18.1952 8.0666 18.1072 7.6496 18.1072C7.4596 18.1072 7.2716 18.1252 7.0866 18.1622L4.2746 18.7242L4.8376 15.9072C4.9556 15.3222 4.8836 14.6962 4.6306 14.0972C4.0166 12.6472 3.8486 11.0502 4.1436 9.48017C4.7526 6.23117 7.4506 3.60817 10.7056 3.10117C13.2956 2.69817 15.8286 3.51417 17.6566 5.34217C19.4856 7.17117 20.3026 9.70517 19.8986 12.2942ZM19.0716 3.92817C16.7866 1.64417 13.6266 0.625171 10.3976 1.12417C6.3206 1.76017 2.9406 5.04417 2.1776 9.11117C1.8096 11.0692 2.0216 13.0632 2.7886 14.8762C2.8856 15.1072 2.9156 15.3222 2.8776 15.5152L2.0196 19.8032C1.9536 20.1312 2.0566 20.4702 2.2936 20.7062C2.4826 20.8962 2.7376 20.9992 3.0006 20.9992C3.0656 20.9992 3.1306 20.9932 3.1966 20.9802L7.4796 20.1232C7.7256 20.0762 7.9636 20.1452 8.1226 20.2112C9.9376 20.9782 11.9316 21.1892 13.8876 20.8222C17.9556 20.0592 21.2396 16.6792 21.8756 12.6022C22.3776 9.37517 21.3566 6.21317 19.0716 3.92817Z" fill="#000000"/>
</g>
</svg>
